!!!!SEGMENT: pl-cz--iii-555--002_raszek-wacllaw--requiem-kyrie.krn
!!!cenid: 17xx:1081
!!!COM: Raszek, Wacław
!!!COM-rismid: pe30020314
!!!CDT: <1848->1848
!!!CNT:
!!!OPR: Requiem
!!!OTL: Kyrie
!!!OMV: 002
!!!PDT:
!!!AGN: Sacred; Requiem
!!!SMS-siglum: PL-CZ
!!!SMS-shelfmark: III-555
!!!SMS-shelfwork: 001-002 M
!!!SMS-variant:
!!!SMS-altvar:
!!!NIFC-rismid: 300001055
!!!OMD: allo Moderato
!!!system-decoration: [(s1,s2,s3)][(s4,s5)][(s6,s7,s8,s9)]
**kern	**text	**kern	**text	**kern	**text	**kern	**text	**kern	**dynam	**kern	**dynam	**kern	**kern	**dynam	**kern
*part9	*part9	*part8	*part8	*part7	*part7	*part6	*part6	*part5	*part5	*part4	*part4	*part3	*part2	*part2	*part1
*staff9	*staff9	*staff8	*staff8	*staff7	*staff7	*staff6	*staff6	*staff5	*	*staff4	*	*staff3	*staff2	*	*staff1
*Ibass	*	*Itenor	*	*Ialto	*	*Ivox	*	*Iempty	*	*Iempty	*	*Iempty	*Iclars	*	*Iclars
*I"Basso	*	*I"Tenore.	*	*I"Alto	*	*I"Canto	*	*I"Cornu IIdo in Dis.	*	*I"Corno Imo in dis	*	*I"Fagoto vel Violone.	*I"Clarinetto 2do in B.	*	*I"Clarinetto 1mo in B.
*I'B.	*	*I'T.	*	*I'A.	*	*I'C.	*	*I'C. II in Dis.	*	*I'C. 1 in dis	*	*I'Fg. vel Vlne	*I'Cl. 2 in B.	*	*I'Cl. 1 in B
*clefF4	*	*clefC4	*	*clefC3	*	*clefC1	*	*clefG2	*	*clefG2	*	*clefF4	*clefG2	*	*clefG2
*	*	*	*	*	*	*	*	*ITrd-2c-3	*	*ITrd5c9	*	*	*ITrd1c2	*	*ITrd1c2
*k[b-e-a-]	*	*k[b-e-a-]	*	*k[b-e-a-]	*	*k[b-e-a-]	*	*k[b-e-a-]	*	*k[b-e-a-]	*	*k[b-e-a-]	*k[b-e-a-]	*	*k[b-e-a-]
*E-:	*	*E-:	*	*E-:	*	*E-:	*	*	*	*	*	*E-:	*E-:	*	*E-:
*M2/2	*	*M2/2	*	*M2/2	*	*M2/2	*	*M2/2	*	*M2/2	*	*M2/2	*M2/2	*	*M2/2
*met(c|)	*	*met(c|)	*	*met(c|)	*	*met(c|)	*	*met(c|)	*	*met(c|)	*	*met(c|)	*met(c|)	*	*met(c|)
=1	=1	=1	=1	=1	=1	=1	=1	=1	=1	=1	=1	=1	=1	=1	=1
*2\right	*	*2\right	*	*2\right	*	*2\right	*	*2\right	*	*2\right	*	*2\right	*2\right	*	*2\right
!	!	!	!	!	!	!LO:TX:t=P:problem:w źródle kolejność znaków przykluczowych es b as	!	!	!	!	!	!	!	!	!
4E-\	Ki-	2B-\	Ki-	2g\	Ki-	2ee-\	Ki-	2g/	.	2e-\	.	4E-\	2g/	.	2ee-\
4G\	.	.	.	.	.	.	.	.	.	.	.	4G\	.	.	.
.	.	.	.	.	.	.	.	.	.	.	.	.	.	.	8qqgg/
4B-\	.	2B-\	-ri-	4a-\	.	4ff\	-ri-	2b-/	.	2f\	.	4B-\	4a-/	.	4ff\
4BB-/	-ri-	.	.	8g\L	-ri-	8ee-\L	.	.	.	.	.	4BB-/	8g/L	.	8ee-\L
.	.	.	.	8f\J	.	8dd\J	.	.	.	.	.	.	8f/J	.	8dd\J
=2	=2	=2	=2	=2	=2	=2	=2	=2	=2	=2	=2	=2	=2	=2	=2
2E-\	-e	2B-\	-e	2g\	-e	2ee-\	-e	2g/	.	2e-\	.	4E-\	2g/	.	2ee-\
.	.	.	.	.	.	.	.	.	.	.	.	4BB-/	.	.	.
2r	.	2r	.	2r	.	2r	.	4r	.	4r	.	4EE-/	4r	.	8b-\L
.	.	.	.	.	.	.	.	.	.	.	.	.	.	.	8ee-\
.	.	.	.	.	.	.	.	4gg\	.	4b-\	.	4r	4gg\	.	8gg\
.	.	.	.	.	.	.	.	.	.	.	.	.	.	.	8bb-\J
=3	=3	=3	=3	=3	=3	=3	=3	=3	=3	=3	=3	=3	=3	=3	=3
2r	.	2r	.	2r	.	2r	.	4gg\	.	4b-\	.	2r	4gg\	.	4bb-\
.	.	.	.	.	.	.	.	4ff\	.	4a-\	.	.	4ff\	.	4aa-\
4r	.	4r	.	4r	.	4r	.	4ee-\	.	4g\	.	4r	4ee-\	.	4gg\
4A-\	e-	4c\	e-	4a-\	e-	4ff\	e-	4b-/	.	4f\	.	4A-\	4a-\	.	4ff\
=4	=4	=4	=4	=4	=4	=4	=4	=4	=4	=4	=4	=4	=4	=4	=4
4B-\	-le-	2B-\	-lei-	4g\	-le-	4ee-\	-le-	4g/	.	4e-\	.	4B-\	4g/	.	4ee-\
4BB-/	-i-	.	.	4f\	-i-	4dd\	-y-	4b-/	.	4f\	.	4BB-/	4f/	.	4dd\
4E-\	-son	4B-\	-son	4g\	-son	4ee-\	-son	4ee-\	.	4g\	.	4E-\	4g/	.	4ee-\
4r	.	4r	.	4r	.	4r	.	4gg\	.	4b-\	.	4r	(4gg\	.	(4gg\
=5	=5	=5	=5	=5	=5	=5	=5	=5	=5	=5	=5	=5	=5	=5	=5
2r	.	2r	.	2r	.	2r	.	4gg\	.	4b-\	.	2r	1a-)	.	1b-)
.	.	.	.	.	.	.	.	4ff\	.	4a-\	.	.	.	.	.
4r	.	4r	.	4r	.	4r	.	4ee-\	.	4g\	.	4r	.	.	.
4A-\	e-	4c\	e-	4a-\	e-	4ff\	e-	4b-/	.	4f\	.	4A-\	.	.	.
=6	=6	=6	=6	=6	=6	=6	=6	=6	=6	=6	=6	=6	=6	=6	=6
!	!	!	!	!	!	!	!	!	!	!	!	!	!LO:TX:t=P:problem:pominięty fragment	!	!LO:TX:t=P:problem:pominięty fragment
4B-\	-le-	2B-\	-le-	4g\	-lei-	4ee-\	-lei-	4g/	.	4e-\	.	4B-\	1a-yy	.	1b-yy
4BB-/	.	.	.	4f\	.	4dd\	.	4b-/	.	4f\	.	4BB-/	.	.	.
4E-\	.	4B-\	.	4g\	.	4ee-\	.	4g/	.	4e-\	.	4E-\	.	.	.
4E-\	.	4B-\	.	4g\	.	4ee-\	.	4ee-\	.	4g\	.	4E-\	.	.	.
=7	=7	=7	=7	=7	=7	=7	=7	=7	=7	=7	=7	=7	=7	=7	=7
4B-\	.	1B-	.	4f\	.	4dd\	.	4b-/	.	4f\	.	4BB-/	4dd\	.	4ff\
4E-\	.	.	.	4g\	.	4ee-\	.	4ee-\	.	4g\	.	4E-\	4ee-\	.	4gg\
4D\	.	.	.	4a-\	.	4ff\	.	4ff\	.	4a-\	.	4D\	4ff\	.	4aa-\
4E-\	.	.	.	4g\	.	4ee-\	.	4ee-\	.	4g\	.	4E-\	4ee-\	.	4gg\
=8	=8	=8	=8	=8	=8	=8	=8	=8	=8	=8	=8	=8	=8	=8	=8
2BB-/	-son	2B-\	-son	2f\	-son	2dd\	-son	4b-/	.	4f\	.	4BB-/	2dd\	.	2ff\
.	.	.	.	.	.	.	.	4b-/	.	4f\	.	4B-\	.	.	.
2r	.	4r	.	2r	.	4r	.	4b-/	.	4f\	.	4BB-/	4r	.	4r
.	.	4d\	e-	.	.	4ff\	e-	4r	.	4r	.	4r	4dd\	.	4ff\
=9	=9	=9	=9	=9	=9	=9	=9	=9	=9	=9	=9	=9	=9	=9	=9
2r	.	4d\	-lei-	2r	.	4ff\	-lei-	2r	.	2r	.	2r	4dd\	.	4ff\
.	.	4c\	.	.	.	4ee-\	.	.	.	.	.	.	4cc\	.	4ee-\
4r	.	4B-\	.	4r	.	4dd\	.	4r	.	4r	.	4r	4b-\	.	4dd\
4E-\	e-	4c\	.	4f\	e-	4cc\	.	4ff\	.	4f\	.	4E-\	4f/	.	4cc\
=10	=10	=10	=10	=10	=10	=10	=10	=10	=10	=10	=10	=10	=10	=10	=10
4D\	.	4B-\	.	2f\	-lei-	4b-\	.	1ff	.	1f	.	4D\	2f/	.	4b-\
4C\	.	4An\	.	.	.	4an\	.	.	.	.	.	4C\	.	.	4a\
4D\	.	4B-\	.	4f\	.	4b-\	.	.	.	.	.	4D\	4f/	.	4b-\
4F\	.	4A\	.	4f\	.	4cc\	.	.	.	.	.	4AAn/	4f/	.	4cc\
=11	=11	=11	=11	=11	=11	=11	=11	=11	=11	=11	=11	=11	=11	=11	=11
4B-\	.	4B-\	.	1f	.	4dd\	.	1ff	.	1f	.	4BB-/	2.f/	.	4dd\
4F\	.	4A-\	.	.	.	4cc\	.	.	.	.	.	4AA-/	.	.	4cc\
4BB-/	.	4B-\	.	.	.	4dd\	.	.	.	.	.	4BB-/	.	.	4dd\
4AA-/	-son	4c\	.	.	.	4ee-\	.	.	.	.	.	4AA-/	4cc\	.	4ee-\
=12	=12	=12	=12	=12	=12	=12	=12	=12	=12	=12	=12	=12	=12	=12	=12
8BB-/L	e-	2B-\	.	2f\	.	2dd\	.	2ff\	.	2f\	.	8BB-\L	2b-\	.	2dd\
8C/	.	.	.	.	.	.	.	.	.	.	.	8C\	.	.	.
8D/	.	.	.	.	.	.	.	.	.	.	.	8D\	.	.	.
8E-/J	.	.	.	.	.	.	.	.	.	.	.	8E-\J	.	.	.
4F\	.	4A-\	-son	4f\	-son	4cc\	-son	4ff\	.	4f\	.	4F\	4a\	.	4cc\
4r	.	4d\	e-	4r	.	4ff\	e-	4r	.	4r	.	4r	4dd\	.	4ff\
=13	=13	=13	=13	=13	=13	=13	=13	=13	=13	=13	=13	=13	=13	=13	=13
2r	.	4d\	-lei-	2r	.	4ff\	-lei-	2r	.	2r	.	2r	4dd\	.	4ff\
.	.	4c\	.	.	.	4ee-\	.	.	.	.	.	.	4cc\	.	4ee-\
4r	.	4B-\	.	4r	.	4dd\	.	4r	.	4r	.	4r	4b-\	.	4dd\
4E-\	.	4F/	.	4f\	e-	4cc\	.	4ff\	.	4f\	.	4E-\	4f/	.	4cc\
=14	=14	=14	=14	=14	=14	=14	=14	=14	=14	=14	=14	=14	=14	=14	=14
4D\	.	2F/	.	1f	-lei-	4b-\	.	1ff	.	1f	.	4D\	2f/	.	4b-\
4C\	.	.	.	.	.	4a-\	.	.	.	.	.	4C\	.	.	4a\
4D\	.	4F/	.	.	.	4b-\	.	.	.	.	.	4D\	4f/	.	4b-\
4F\	.	4c\	.	.	.	4cc\	.	.	.	.	.	4AAn/	4f/	.	4cc\
=15	=15	=15	=15	=15	=15	=15	=15	=15	=15	=15	=15	=15	=15	=15	=15
4B-\	.	4B-\	.	2.f\	.	4dd\	.	2ff\	.	2f\	.	4BB-/	2.f/	.	4dd\
4A-\	.	4c\	.	.	.	4cc\	.	.	.	.	.	4AA-/	.	.	4cc\
4B-\	-le-	4d\	.	.	.	4dd\	.	4ff\	.	4f\	.	4BB-/	.	.	4dd\
4G\	-i-	4c\	.	4b-\	.	4een\	.	4gg\	.	4g\	.	4G\	4b-\	.	4eeX\
=16	=16	=16	=16	=16	=16	=16	=16	=16	=16	=16	=16	=16	=16	=16	=16
2F\	-son	2c\	-son	2an\	-son	2ff\	-son.	4ff\	.	4f\	.	2F\	2a\	.	2ff\
.	.	.	.	.	.	.	.	4ff\	.	4f\	.	.	.	.	.
2r	.	2r	.	2r	.	2r	.	4ff\	.	4f\	.	2r	2r	.	2r
.	.	.	.	.	.	.	.	4ff\	.	4f\	.	.	.	.	.
=17	=17	=17	=17	=17	=17	=17	=17	=17	=17	=17	=17	=17	=17	=17	=17
2.An\	Ki-	2.c\	Ki-	2.f\	Ki-	2.ee-X\	Ki-	1ff	.	1f	.	4F\	8F/L	.	2.ee-\
.	.	.	.	.	.	.	.	.	.	.	.	.	8A/	.	.
.	.	.	.	.	.	.	.	.	.	.	.	4An\	8c/	.	.
.	.	.	.	.	.	.	.	.	.	.	.	.	8A/J	.	.
.	.	.	.	.	.	.	.	.	.	.	.	4c\	8F/L	.	.
.	.	.	.	.	.	.	.	.	.	.	.	.	8A/	.	.
4A\	-ri-	4c\	-ri-	4f\	-ri-	4ee-\	-ri-	.	.	.	.	4F\	8c/	.	4ee-\
.	.	.	.	.	.	.	.	.	.	.	.	.	8A/J	.	.
=18	=18	=18	=18	=18	=18	=18	=18	=18	=18	=18	=18	=18	=18	=18	=18
2B-\	-e	2B-\	-e	2f\	-e	2dd\	-e	1b-	.	1f	.	4B-\	8F/L	.	2dd\
.	.	.	.	.	.	.	.	.	.	.	.	.	8B-/	.	.
.	.	.	.	.	.	.	.	.	.	.	.	4F\	8d/	.	.
.	.	.	.	.	.	.	.	.	.	.	.	.	8B-/J	.	.
2B-\	e-	2B-\	e-	2f\	e-	2dd\	elei-	.	.	.	.	4D\	8F/L	.	8dd\L
.	.	.	.	.	.	.	.	.	.	.	.	.	8B-/	.	8ff\
.	.	.	.	.	.	.	.	.	.	.	.	4BB-\	8d/	.	8dd\
.	.	.	.	.	.	.	.	.	.	.	.	.	8B-/J	.	8ff\J
=19	=19	=19	=19	=19	=19	=19	=19	=19	=19	=19	=19	=19	=19	=19	=19
1A-	-lei-	1c	-lei-	1f	-lei-	1ee-	-son	1ff	.	1f	.	4F\	8F/L	.	1ee-
.	.	.	.	.	.	.	.	.	.	.	.	.	8A-/	.	.
.	.	.	.	.	.	.	.	.	.	.	.	4A-\	8c/	.	.
.	.	.	.	.	.	.	.	.	.	.	.	.	8A-/J	.	.
.	.	.	.	.	.	.	.	.	.	.	.	4c\	8F/L	.	.
.	.	.	.	.	.	.	.	.	.	.	.	.	8A-/	.	.
.	.	.	.	.	.	.	.	.	.	.	.	4F\	8c/	.	.
.	.	.	.	.	.	.	.	.	.	.	.	.	8A-/J	.	.
=20	=20	=20	=20	=20	=20	=20	=20	=20	=20	=20	=20	=20	=20	=20	=20
!	!	!	!	!	!	!	!	!	!	!	!	!	!LO:TX:t=P:problem:pominięty fragment	!	!
2B-\	-son	1B-	-son	1f	.	1dd	eleison	1b-	.	1f	.	4B-\	1a-yy	.	1dd
.	.	.	.	.	.	.	.	.	.	.	.	4F\	.	.	.
2r	.	.	.	.	.	.	.	.	.	.	.	4D\	.	.	.
.	.	.	.	.	.	.	.	.	.	.	.	4BB-\	.	.	.
=21	=21	=21	=21	=21	=21	=21	=21	=21	=21	=21	=21	=21	=21	=21	=21
1E-	e-	2r	.	1g	.	4cc\	Ki-	4ee-\	.	4g\	.	2E-\	4e-/	.	4cc\
.	.	.	.	.	.	4gg\	-ri-	4r	.	4r	.	.	4r	.	4gg\
.	.	4r	.	.	.	4ee-\	-e	4r	.	4r	.	4r	4g/	.	4ee-\
.	.	4e-\	e-	.	.	4cc\	e-	4ee-\	.	4g\	.	4E-\	4e-/	.	4cc\
=22	=22	=22	=22	=22	=22	=22	=22	=22	=22	=22	=22	=22	=22	=22	=22
2F\	-lei-	2d\	-lei-	1f	.	2b-\	-lei-	2ff\	.	2f\	.	2F\	2d/	.	2b-\
2FF/	.	2c\	.	.	.	2an\	.	2ff\	.	2f\	.	2FF/	2c/	.	2a\
=23	=23	=23	=23	=23	=23	=23	=23	=23	=23	=23	=23	=23	=23	=23	=23
4BB-/	.	4d\	.	4f\	-son	4b-\	-son	2b-/	.	2f\	.	4BB-/	4d/	.	4b-\
4AAn/	.	4c\	.	4f\	e-	4cc\	e-	.	.	.	.	4AA-/	4f/	.	8cc\L
.	.	.	.	.	.	.	.	.	.	.	.	.	.	.	8ee-\J
4BB-/	.	2B-\	.	4f\	-le-	4dd\	-le-	2r	.	2r	.	4BB-/	4f/	.	4dd\
4G\	.	.	.	4g\	-i-	4ee-\	-i-	.	.	.	.	4G\	4b-\	.	8ee-\L
.	.	.	.	.	.	.	.	.	.	.	.	.	.	.	8gg\J
=24	=24	=24	=24	=24	=24	=24	=24	=24	=24	=24	=24	=24	=24	=24	=24
4D\	.	2B-\	.	4f\	.	4ff\	-son	4b-/	.	4B-/	.	4D\	4b-\	.	4ff\
4E-\	.	.	.	4g\	.	4b-\	{e-	4b-/	.	4B-/	.	4E-\	4b-\	.	8bb-\L
.	.	.	.	.	.	.	.	.	.	.	.	.	.	.	8gg\J
4D\	.	4B-\	.	4f\	.	4b-\	-lei-	4b-/	.	4B-/	.	4D\	4b-\	.	4ff\
4E-\	.	4c\	.	4g\	.	4ee-\	.	4ee-\	.	4g\	.	4E-\	8ee-\L	.	8gg\L
.	.	.	.	.	.	.	.	.	.	.	.	.	8cc\J	.	8ee-\J
=25	=25	=25	=25	=25	=25	=25	=25	=25	=25	=25	=25	=25	=25	=25	=25
2F\	.	2B-\	.	2b-\	.	2dd\	.	2ff\	.	2f\	.	2F\	2b-\	.	2dd\
2FF/	.	2An\	.	2an\	.	2cc\	.	2ff\	.	2f\	.	2FF/	2a\	.	2cc\
=26	=26	=26	=26	=26	=26	=26	=26	=26	=26	=26	=26	=26	=26	=26	=26
2BB-/	-son	2B-\	-son	2b-\	-son	2b-\	-son}	4b-/	.	4f\	.	4BB-/	4b-\	.	4b-\
.	.	.	.	.	.	.	.	4b-/	.	4f\	.	4B-\	4d/	.	4b-\
2r	.	2r	.	2r	.	2r	.	2b-/	.	2f\	.	2BB-/	2d/	.	2b-\
=27	=27	=27	=27	=27	=27	=27	=27	=27	=27	=27	=27	=27	=27	=27	=27
2BB-/	Chri-	1F	Chri-	2d\	Ki-	2b-\	Chris-	1r	.	1r	.	4BB-/	1r	.	1r
.	.	.	.	.	.	.	.	.	.	.	.	4D/	.	.	.
.	.	.	.	.	.	8qqdd/	.	.	.	.	.	.	.	.	.
2F\	.	.	.	4e-\	.	4cc\	.	.	.	.	.	4F/	.	.	.
.	.	.	.	8d\L	-ri-	8b-\L	.	.	.	.	.	4FF/	.	.	.
.	.	.	.	8c\J	.	8a-\J	.	.	.	.	.	.	.	.	.
=28	=28	=28	=28	=28	=28	=28	=28	=28	=28	=28	=28	=28	=28	=28	=28
!	!	!	!	!	!	!	!	!LO:TX:a:t=6.	!	!LO:TX:a:t=6.	!	!	!LO:TX:a:t=6	!	!LO:TX:a:t=5
2BB-/	-ste	2F/	-ste	2d\	-e	2b-\	-te	1r	.	1r	.	4BB-/	1r	.	1r
.	.	.	.	.	.	.	.	.	.	.	.	4B-\	.	.	.
4r	.	4r	.	4r	.	4r	.	.	.	.	.	4F\	.	.	.
!	!	!	!	!	!	!LO:TX:b:i:t=Verte Cito	!	!	!	!	!	!	!	!	!
4F\	e-	4A-\	e-	4f\	elei-	4cc\	e-	.	.	.	.	4FF/	.	.	.
=29	=29	=29	=29	=29	=29	=29	=29	=29	=29	=29	=29	=29	=29	=29	=29
2B-\	-lei-	2B-\	-lei-	1f	-son	2dd\	-ley-	1r	.	1r	.	4BB-/	1r	.	1r
.	.	.	.	.	.	.	.	.	.	.	.	4D/	.	.	.
2F\	.	4c\	.	.	.	4ee-\	-son	.	.	.	.	4F\	.	.	.
.	.	8B-\L	.	.	.	8dd\L	.	.	.	.	.	4FF/	.	.	.
.	.	8A-\J	.	.	.	8cc\J	.	.	.	.	.	.	.	.	.
=30	=30	=30	=30	=30	=30	=30	=30	=30	=30	=30	=30	=30	=30	=30	=30
2BB-/	-son	2B-\	.	2f\	.	2dd\	.	1r	.	1r	.	2BB-/	1r	.	1r
4r	.	4d\	-son	4r	.	4ff\	.	.	.	.	.	4r	.	.	.
4BB-/	e-	4B-\	e-	4f\	e-	4dd\	.	.	.	.	.	4BB-/	.	.	.
=31	=31	=31	=31	=31	=31	=31	=31	=31	=31	=31	=31	=31	=31	=31	=31
2F\	-lei-	2B-\	-lei-	2f\	-lei-	2dd\	e-	1r	.	1r	.	4F\	1r	.	1r
.	.	.	.	.	.	.	.	.	.	.	.	4FF/	.	.	.
2FF/	-son	2A-\	-son	2f\	-son	2cc\	.	.	.	.	.	2F\	.	.	.
=32	=32	=32	=32	=32	=32	=32	=32	=32	=32	=32	=32	=32	=32	=32	=32
!	!	!	!	!	!	!	!	!	!	!	!	!	!	!	!LO:TX:b:i:t=Verte
1r	.	1r	.	1r	.	4ff\	-e-	1r	.	1r	.	1r	1r	.	1ryy
.	.	.	.	.	.	4ee-\	.	.	.	.	.	.	.	.	.
.	.	.	.	.	.	4dd\	.	.	.	.	.	.	.	.	.
.	.	.	.	.	.	4cc\	.	.	.	.	.	.	.	.	.
=33	=33	=33	=33	=33	=33	=33	=33	=33	=33	=33	=33	=33	=33	=33	=33
!LO:TX:a:t=1	!	!LO:TX:a:t=1	!	!LO:TX:a:t=1	!	!	!	!	!	!	!	!LO:TX:a:t=1	!	!	!LO:TX:t=P:problem:w źródle brak dalszej partii - karty z ołówkową foliacją "12"
4G\	e-	1G	e-	1d	e-	1bn	-leij-	1g	.	1g	.	4G\	1d	.	1ryy
4F\	.	.	.	.	.	.	.	.	.	.	.	4F\	.	.	.
4E-\	.	.	.	.	.	.	.	.	.	.	.	4E-\	.	.	.
4D\	.	.	.	.	.	.	.	.	.	.	.	4D\	.	.	.
=34	=34	=34	=34	=34	=34	=34	=34	=34	=34	=34	=34	=34	=34	=34	=34
4E-\	.	4G/	-lei-	4g\	.	4cc\	.	2g/	.	2g\	.	4E-\	4g/	.	1ryy
4BBn/	.	4d\	.	4g\	.	4dd\	.	.	.	.	.	4BBn/	2g/	.	.
4C/	-le-	4c\	.	4g\	.	4ee-\	.	4r	.	4r	.	4C/	.	.	.
4D/	-i-	4d\	.	4g\	-lei-	4ff\	.	4g/	.	4g\	.	4D/	4g/	.	.
=35	=35	=35	=35	=35	=35	=35	=35	=35	=35	=35	=35	=35	=35	=35	=35
2C/	-son	2c\	.	2g\	-son	2ee-\	.	2g/	.	2g\	.	8C\L	2cc\	.	1ryy
.	.	.	.	.	.	.	.	.	.	.	.	8D\	.	.	.
.	.	.	.	.	.	.	.	.	.	.	.	8E-\	.	.	.
.	.	.	.	.	.	.	.	.	.	.	.	8F\J	.	.	.
2G\	.	2Bn\	-son	2g\	.	2dd\	-son	2g/	.	2g\	.	2G\	2bX\	.	.
=36	=36	=36	=36	=36	=36	=36	=36	=36	=36	=36	=36	=36	=36	=36	=36
4r	.	4r	.	1g	elei-	4r	.	4g/	.	4g\	.	4G\	4r	.	1ryy
4G\	e-	4B-\	e-	.	.	4bn\	e-	4g/	.	4g\	.	4GG/	4BX/	.	.
4A-\	-le-	4A-\	-lei-	.	.	4cc\	.	4g/	.	4g\	.	4AA-/	4c/	.	.
4Bn\	-i-	4G\	.	.	.	4dd\	.	4g/	.	4g\	.	4BBn/	4d/	.	.
=37	=37	=37	=37	=37	=37	=37	=37	=37	=37	=37	=37	=37	=37	=37	=37
4c\	.	1G	.	2g\	-son	4ee-\	-lei-	1g	.	1g	.	4C\	4e-/	.	1ryy
4D\	.	.	.	.	.	4dd\	.	.	.	.	.	4D\	4f/	.	.
4E-\	.	.	.	2g\	.	4cc\	.	.	.	.	.	4E-\	4g/	.	.
4F\	.	.	.	.	.	8dd\L	.	.	.	.	.	4F\	4a-/	.	.
.	.	.	.	.	.	8cc\J	.	.	.	.	.	.	.	.	.
=38	=38	=38	=38	=38	=38	=38	=38	=38	=38	=38	=38	=38	=38	=38	=38
4G\	.	4G/	-son	1g	e-	4bn\	.	4g/	.	4g\	.	4G\	4d/	.	1ryy
4G\	.	4B-/	e-	.	.	4b\	-son	2g/	.	2g\	.	4GG/	4BX/	.	.
4A-\	.	4A-/	-lei-	.	.	4cc\	e-	.	.	.	.	4AA-/	4c/	.	.
!	!	!	!	!	!	!	!	!	!	!	!	!	!LO:TX:t=P:problem:nad kreską taktową znak X	!	!
4B-\	.	4G/	.	.	.	4dd\	.	4g/	.	4g\	.	4BB-/	4d/	.	.
=39	=39	=39	=39	=39	=39	=39	=39	=39	=39	=39	=39	=39	=39	=39	=39
4c\	.	2.G/	-son	1g	.	4ee-\	-lei-	2g/	.	2g\	.	4C\	4e-/	.	1ryy
4D\	.	.	.	.	.	4dd\	.	.	.	.	.	4D\	4f/	.	.
4E-\	.	.	.	.	.	4cc\	.	4r	.	4r	.	4E-\	4g/	.	.
4En\	.	4c\	e-	.	.	4b-X\	.	4gg\	.	4g\	.	4En\	4g/	.	.
=40	=40	=40	=40	=40	=40	=40	=40	=40	=40	=40	=40	=40	=40	=40	=40
4F\	.	4c\	-lei-	2f\	-lei-	4an\	.	4ff\	.	4f\	.	4F\	4c/	.	1ryy
4F\	.	4A-\	.	.	.	4a\	-son	2ff\	.	2f\	.	4FF/	4A/	.	.
4G\	.	4G\	.	2f\	-son	4b-\	e-	.	.	.	.	4GG/	4B-/	.	.
4A-\	.	4F/	.	.	.	4cc\	.	4ff\	.	4f\	.	4AAn/	4c/	.	.
=41	=41	=41	=41	=41	=41	=41	=41	=41	=41	=41	=41	=41	=41	=41	=41
4B-\	.	2.F/	-son	2.f\	e-	4dd\	-lei-	2b-/	.	2f\	.	4BB-\	4d/	.	1ryy
4C/	.	.	.	.	.	4cc\	.	.	.	.	.	4C\	4e-/	.	.
4D/	.	.	.	.	.	4b-\	.	2r	.	2r	.	4D\	4f/	.	.
4E-/	.	4c\	e-	4g\	.	8cc\L	.	.	.	.	.	4E-\	4g/	.	.
.	.	.	.	.	.	8b-\J	.	.	.	.	.	.	.	.	.
=42	=42	=42	=42	=42	=42	=42	=42	=42	=42	=42	=42	=42	=42	=42	=42
4F\	.	4c\	-lei-	2f\	.	4an\	-son	4r	.	4r	.	4F\	4f/	.	1ryy
4F\	.	4A-\	.	.	.	2ff\	e-	4ff\	.	4f\	.	4FF/	4A-/	.	.
4G\	.	4G\	.	2f\	-lei-	.	.	4ff\	.	4f\	.	4GG/	4B-/	.	.
4An\	.	4F/	.	.	.	4ee-\	-lei-	4ff\	.	4f\	.	4AA-/	4c/	.	.
=43	=43	=43	=43	=43	=43	=43	=43	=43	=43	=43	=43	=43	=43	=43	=43
4B-\	.	4F/	.	4f\	-son	2dd\	-son	4b-/	.	4f\	.	4BB-/	4f/	.	1ryy
4BB-/	.	4d\	.	2b-\	e-	.	.	2b-/	.	2b-\	.	4BB-/	4d/	.	.
4C/	.	4c\	.	.	.	4ee-\	e-	.	.	.	.	4C/	4e-/	.	.
4D/	.	4B-\	.	4a-\	-lei-	4ff\	.	4ff\	.	4a-\	.	4D/	4f/	.	.
=44	=44	=44	=44	=44	=44	=44	=44	=44	=44	=44	=44	=44	=44	=44	=44
4E-\	.	4B-\	.	4g\	-son	4gg\	-lei-	4ee-\	.	4g\	.	4E-\	4g/	.	1ryy
4F\	.	4A-\	.	4a-\	e-	4ff\	.	4b-/	.	4f\	.	4F\	4a-/	.	.
4G\	.	4G\	.	4b-\	.	4ee-\	.	4g/	.	4e-\	.	4G\	4b-/	.	.
!	!	!	!	!	!	!	!	!	!	!	!	!LO:TX:b:i:t=Cito Verte	!	!	!
4E-\	.	4B-\	.	4g\	.	4ee-\	.	4ee-\	.	4g\	.	4E-\	4g/	.	.
=45	=45	=45	=45	=45	=45	=45	=45	=45	=45	=45	=45	=45	=45	=45	=45
2B-\	-son	2B-\	-son	2g\	.	2ee-\	.	2ee-\	.	2g\	.	2B-\	2g/	.	1ryy
!	!	!	!	!LO:TX:b:i:t=Cito Verte	!	!	!	!	!	!	!	!	!	!	!
2BB-/	.	2B-\	e-	2f\	.	2dd\	.	2b-/	.	2f\	.	2BB-/	2f/	.	.
=46	=46	=46	=46	=46	=46	=46	=46	=46	=46	=46	=46	=46	=46	=46	=46
4E-\	e-	2B-\	-lei-	2g\	-lei-	2ee-\	.	2g/	.	2e-\	.	4E-\	2g/	.	1ryy
4G\	.	.	.	.	.	.	.	.	.	.	.	4G\	.	.	.
4B-\	-le-	2B-\	.	4a-\	.	4ff\	.	2b-/	.	2f\	.	4B-\	4a-/	.	.
4BB-/	-i-	.	.	8g\L	.	8ee-\L	.	.	.	.	.	4BB-/	8g/L	.	.
.	.	.	.	8f\J	.	8dd\J	.	.	.	.	.	.	8f/J	.	.
=47	=47	=47	=47	=47	=47	=47	=47	=47	=47	=47	=47	=47	=47	=47	=47
2E-\	-son	2B-\	-son	2g\	-son	2ee-\	-son	2g/	.	2e-\	.	4E-\	2g/	.	1ryy
.	.	.	.	.	.	.	.	.	.	.	.	4BB-/	.	.	.
2r	.	2r	.	2r	.	2r	.	4r	.	4r	.	4EE-/	4r	.	.
.	.	.	.	.	.	.	.	4gg\	.	4b-\	.	4r	4gg\	.	.
=48	=48	=48	=48	=48	=48	=48	=48	=48	=48	=48	=48	=48	=48	=48	=48
2r	.	2r	.	2r	.	2r	.	4gg\	.	4b-\	.	2r	4gg\	.	1ryy
.	.	.	.	.	.	.	.	4ff\	.	4a-\	.	.	4ff\	.	.
4r	.	4r	.	4r	.	4r	.	4ee-\	.	4g\	.	4r	4ee-\	.	.
4A-\	e-	4c\	e-	4a-\	e-	4ff\	e-	4b-/	.	4f\	.	4A-\	4a-\	.	.
=49	=49	=49	=49	=49	=49	=49	=49	=49	=49	=49	=49	=49	=49	=49	=49
4B-\	-le-	2B-\	-lei-	4g\	-lei-	4ee-\	-lei-	4g/	.	4e-\	.	4B-\	4g/	.	1ryy
4BB-/	-i-	.	.	4f\	.	4dd\	.	4b-/	.	4f\	.	4BB-/	4g/	.	.
4E-\	.	4B-\	-son	4g\	.	4ee-\	.	4ee-\	.	4g\	.	4E-\	4g/	.	.
4E-\	.	4B-\	e-	4g\	.	4ee-\	.	4ee-\	.	4g\	.	4r	4ee-\	.	.
=50	=50	=50	=50	=50	=50	=50	=50	=50	=50	=50	=50	=50	=50	=50	=50
4B-\	.	1B-	-lei-	4f\	.	4dd\	.	4b-/	.	4f\	.	4B-\	4dd\	.	1ryy
4E-\	.	.	.	4g\	.	4ee-\	.	4ee-\	.	4g\	.	4E-\	4ee-\	.	.
4D\	.	.	.	4a-\	.	4ff\	.	4ff\	.	4a-\	.	4D\	4ff\	.	.
4E-\	.	.	.	4g\	.	4ee-\	.	4ee-\	.	4g\	.	4E-\	4ee-\	.	.
=51	=51	=51	=51	=51	=51	=51	=51	=51	=51	=51	=51	=51	=51	=51	=51
2BB-/	-son	2B-\	-son	2f\	-son	2dd\	-son	2b-/	.	2f\	.	4BB-/	2dd\	.	1ryy
.	.	.	.	.	.	.	.	.	.	.	.	4B-\	.	.	.
!LO:TX:b:i:t=Cito Verte	!	!	!	!	!	!	!	!	!	!	!	!	!	!	!
2r	.	2r	.	2r	.	2r	.	2r	.	2r	.	2BB-/	2r	.	.
=52	=52	=52	=52	=52	=52	=52	=52	=52	=52	=52	=52	=52	=52	=52	=52
2.D\	Ki-	2.B-\	Ki-	2.a-\	Ki-	2.ff\	Ki-	1b-	.	1f	.	4BB-/	2.ff\	.	1ryy
.	.	.	.	.	.	.	.	.	.	.	.	4D/	.	.	.
.	.	.	.	.	.	.	.	.	.	.	.	4F\	.	.	.
4D\	-ri-	4B-\	-ri-	4a-\	-ri-	4ff\	-ri-	.	.	.	.	4BB-/	4ff\	.	.
=53	=53	=53	=53	=53	=53	=53	=53	=53	=53	=53	=53	=53	=53	=53	=53
2E-\	-e	2B-\	-e	2g\	-e	2ee-\	-e	1ee-	.	1g	.	4E-\	2ee-\	.	1ryy
.	.	.	.	.	.	.	.	.	.	.	.	4B-\	.	.	.
2E-\	e-	2B-\	e-	2g\	e-	2ee-\	elei-	.	.	.	.	4G\	2ee-\	.	.
.	.	.	.	.	.	.	.	.	.	.	.	4E-\	.	.	.
=54	=54	=54	=54	=54	=54	=54	=54	=54	=54	=54	=54	=54	=54	=54	=54
1D	-lei-	1B-	-lei-	1a-	-lei-	1ff	-son	1b-	.	1f	.	4BB-\	1ff	.	1ryy
.	.	.	.	.	.	.	.	.	.	.	.	4D\	.	.	.
.	.	.	.	.	.	.	.	.	.	.	.	4F\	.	.	.
.	.	.	.	.	.	.	.	.	.	.	.	4BB-\	.	.	.
=55	=55	=55	=55	=55	=55	=55	=55	=55	=55	=55	=55	=55	=55	=55	=55
1E-	-son	1B-	-son	1g	-son	1ee-	.	1ee-	.	1g	.	4E-\	1ee-	.	1ryy
.	.	.	.	.	.	.	.	.	.	.	.	4B-\	.	.	.
.	.	.	.	.	.	.	.	.	.	.	.	4G\	.	.	.
.	.	.	.	.	.	.	.	.	.	.	.	4E-\	.	.	.
=56	=56	=56	=56	=56	=56	=56	=56	=56	=56	=56	=56	=56	=56	=56	=56
2r	.	2r	.	2r	.	4r	.	2ff\	.	2f\	.	2A-\	4cc\	.	1ryy
.	.	.	.	.	.	4ff\	.	.	.	.	.	.	4r	.	.
2A-\	e-	2c\	e-	2a-\	e-	4aa-\	e-	4r	.	4a-\	.	4r	4cc\	.	.
.	.	.	.	.	.	4ff\	.	4b-/	.	4f\	.	4A-\	4a-\	.	.
=57	=57	=57	=57	=57	=57	=57	=57	=57	=57	=57	=57	=57	=57	=57	=57
!	!	!	!	!	!	!	!	!	!	!	!	!	!LO:TX:t=P:problem:nad nutami litery "a" i "g"	!	!
2B-\	-le-	1B-	-lei-	2g\	-lei-	2ee-\	-lei-	2g/	.	2e-\	.	2B-\	2g/	.	1ryy
2BB-/	-i-	.	.	2f\	.	2dd\	.	2b-/	.	2f\	.	2BB-/	2f/	.	.
=58	=58	=58	=58	=58	=58	=58	=58	=58	=58	=58	=58	=58	=58	=58	=58
!	!	!	!	!	!	!	!	!	!LO:DY:a:Bi:t=%s.	!	!LO:DY:a:Bi:t=%s&colon;	!	!	!	!
2E-\	-son	2B-\	-son	2g\	-son	2ee-\	-son	4g/	p	4e-\	p	2E-\	2g/	.	1ryy
.	.	.	.	.	.	.	.	4e-/	.	4e-\	.	.	.	.	.
!	!	!LO:TX:b:i:t=Cito Verte	!	!	!	!	!	!	!	!	!	!	!	!	!
2r	.	2r	.	2r	.	2r	.	4e-/	.	4e-\	.	2r	2r	.	.
.	.	.	.	.	.	.	.	4e-/	.	4e-\	.	.	.	.	.
=59	=59	=59	=59	=59	=59	=59	=59	=59	=59	=59	=59	=59	=59	=59	=59
!	!	!	!	!LO:TX:t=P:problem:w źródle pomiędzy nutami jakieś znaki	!	!	!	!	!	!	!	!	!	!	!
2.E-\	Ki-	2.B-\	Ki-	2.g\	Ki-	2.dd-X\	Ki-	2e-/	.	1e-	.	2E-\	4r	.	1ryy
!	!	!	!	!	!	!	!	!	!	!	!	!	!	!LO:DY:a:Bi:t=%sia	!
.	.	.	.	.	.	.	.	.	.	.	.	.	4b-\	p	.
.	.	.	.	.	.	.	.	2e-/	.	.	.	2r	4b-\	.	.
4E-\	-ri-	4B-\	-ri-	4g\	-ri-	4dd-\	-ri-	.	.	.	.	.	4b-\	.	.
=60	=60	=60	=60	=60	=60	=60	=60	=60	=60	=60	=60	=60	=60	=60	=60
2E-\	-e	2A-\	-e	2a-\	-e	2cc\	-e	2e-/	.	1e-	.	2EE-/	4r	.	1ryy
.	.	.	.	.	.	.	.	.	.	.	.	.	4a-\	.	.
2E-\	e-	2c\	e-	2a-\	e-	2cc\	e-	2e-/	.	.	.	2r	4a-\	.	.
.	.	.	.	.	.	.	.	.	.	.	.	.	4a-\	.	.
=61	=61	=61	=61	=61	=61	=61	=61	=61	=61	=61	=61	=61	=61	=61	=61
1BB-	-lei-	1B-	-lei-	1a-	-lei-	1ddn	-lei-	1b-	.	1f	.	2BB-/	4r	.	1ryy
.	.	.	.	.	.	.	.	.	.	.	.	.	4a-\	.	.
.	.	.	.	.	.	.	.	.	.	.	.	2r	4a-\	.	.
.	.	.	.	.	.	.	.	.	.	.	.	.	4a-\	.	.
=62	=62	=62	=62	=62	=62	=62	=62	=62	=62	=62	=62	=62	=62	=62	=62
!	!	!	!	!	!	!	!	!LO:N:vis=2.	!	!	!	!	!	!	!
2E-\	-son	2B-\	-son	2g\	-son	2ee-\	-son	2ee-\	.	2g\	.	2E-\	4r	.	1ryy
.	.	.	.	.	.	.	.	.	.	.	.	.	4g/	.	.
2r	.	2r	.	2r	.	2r	.	2r	.	2r	.	2r	4g/	.	.
.	.	.	.	.	.	.	.	.	.	.	.	.	4g/	.	.
=63	=63	=63	=63	=63	=63	=63	=63	=63	=63	=63	=63	=63	=63	=63	=63
*	*ij	*	*ij	*	*ij	*	*ij	*	*	*	*	*	*	*	*
!	!	!	!	!	!	!	!	!	!	!	!LO:DY:a:Bi:t=%s&colon;	!	!	!	!
2.E-\	Ki-	2.e-\	Ki-	2.e-\	Ki-	2.e-/	Ki-	1e-	.	1e-	pp	2EE-/	8E-/L	.	1ryy
.	.	.	.	.	.	.	.	.	.	.	.	.	8G/	.	.
.	.	.	.	.	.	.	.	.	.	.	.	.	8B-/	.	.
.	.	.	.	.	.	.	.	.	.	.	.	.	8G/J	.	.
.	.	.	.	.	.	.	.	.	.	.	.	2r	8E-/L	.	.
.	.	.	.	.	.	.	.	.	.	.	.	.	8G/	.	.
4E-\	-ri-	4e-\	-ri-	4e-\	-ri-	4e-/	-ri-	.	.	.	.	.	8B-/	.	.
.	.	.	.	.	.	.	.	.	.	.	.	.	8G/J	.	.
=64	=64	=64	=64	=64	=64	=64	=64	=64	=64	=64	=64	=64	=64	=64	=64
2E-\	-e	2e-\	-e	2e-\	-e	2e-/	-e	2e-/	.	1e-	.	2EE-/	8D/L	.	1ryy
.	.	.	.	.	.	.	.	.	.	.	.	.	8A-/	.	.
.	.	.	.	.	.	.	.	.	.	.	.	.	8c/	.	.
.	.	.	.	.	.	.	.	.	.	.	.	.	8A-/J	.	.
2E-\	e-	2e-\	e-	2e-\	e-	2e-/	e-	2e-/	.	.	.	2r	8D/L	.	.
.	.	.	.	.	.	.	.	.	.	.	.	.	8A-/	.	.
.	.	.	.	.	.	.	.	.	.	.	.	.	8c/	.	.
.	.	.	.	.	.	.	.	.	.	.	.	.	8A-/J	.	.
=65	=65	=65	=65	=65	=65	=65	=65	=65	=65	=65	=65	=65	=65	=65	=65
1E-	-lei-	1d	-lei-	1f	-lei-	1a-	-lei-	1b-	.	1f	.	2EE-/	8F/L	.	1ryy
.	.	.	.	.	.	.	.	.	.	.	.	.	8A-/	.	.
.	.	.	.	.	.	.	.	.	.	.	.	.	8B-/	.	.
.	.	.	.	.	.	.	.	.	.	.	.	.	8A-/J	.	.
.	.	.	.	.	.	.	.	.	.	.	.	2r	8F/L	.	.
.	.	.	.	.	.	.	.	.	.	.	.	.	8A-/	.	.
.	.	.	.	.	.	.	.	.	.	.	.	.	8B-/	.	.
.	.	.	.	.	.	.	.	.	.	.	.	.	8A-/J	.	.
=66	=66	=66	=66	=66	=66	=66	=66	=66	=66	=66	=66	=66	=66	=66	=66
2E-\	-son	2e-\	-son	2e-\	-son	2g\	-son	2ee-\	.	2g\	.	2EE-/	4G/	.	1ryy
.	.	.	.	.	.	.	.	.	.	.	.	.	4g/	.	.
*	*Xij	*	*Xij	*	*Xij	*	*Xij	*	*	*	*	*	*	*	*
2r	.	2r	.	2r	.	2r	.	4g/	.	4e-\	.	4EE-/	4g/	.	.
.	.	.	.	.	.	.	.	4g/	.	4e-\	.	4EE-/	4g/	.	.
=67	=67	=67	=67	=67	=67	=67	=67	=67	=67	=67	=67	=67	=67	=67	=67
1r;	.	1ryy	.	1r	.	1r	.	2g/	.	1e-	.	1EE-	1g	.	1ryy
.	.	.	.	.	.	.	.	2r	.	.	.	.	.	.	.
==	==	==	==	==	==	==	==	==	==	==	==	==	==	==	==
*-	*-	*-	*-	*-	*-	*-	*-	*-	*-	*-	*-	*-	*-	*-	*-
!!title: @{OTL};
!!!RDF**kern: > = above
!!!RDF**kern: < = below
!!!RDF**kern: | = vertical stroke
!!!RDF**kern: N = linked
!!!RDF**kern: i = editorial accidental
!!!RDF**kern: l = terminal long
!!!AIN: 1 alto 1 bass 2 clars 3 empty 1 tenor 1 vox
!!!ENC: Mateusz Solarz
!!!END: 2020-09-24
!!!EED: Wojciech Jakubiak-Danek
!!!EST: 2022-01-31
!!!URL-scan: http://repozytorium.nifc.pl/skany/pl-cz-nut--iii-555
!!!ONB-nifc: UWAGA: części Requiem: Requiem, Kyrie, Dies irae, Qui Mariam, Domine Jesu Christe, Sanctus, Pleni sunt, Benedictus, Agnus Dei, Lux aeterna
